build/documents/DocExportSolid.svg

<svg xmlns="http://www.w3.org/2000/svg" fill="none" viewBox="0 0 24 24" focusable="false"><path d="M0 0H24V24H0z"/><path fill="#74767B" fill-rule="evenodd" d="M17.0001 3C18.6569 3 20.0001 4.34315 20.0001 6L20.0001 18C20.0001 19.6569 18.6569 21 17.0001 21L7.00684 21C5.34998 21 4.00684 19.6569 4.00684 18L4.00684 6C4.00684 4.34315 5.34998 3 7.00684 3L17.0001 3ZM12.9444 14.0569C12.7644 14.0569 12.5944 13.9869 12.4644 13.8469C12.2244 13.5769 12.2444 13.1669 12.5044 12.9269L13.3882 11.9912L12.6275 11.9912C11.3296 11.9912 10.2775 13.0434 10.2775 14.3412L10.2775 14.691C10.2775 15.05 9.98649 15.341 9.62751 15.341C9.26852 15.341 8.97751 15.05 8.97751 14.691L8.97751 14.3412C8.97751 12.3254 10.6117 10.6912 12.6275 10.6912C12.9071 10.6848 12.9598 10.6854 13.0762 10.6866C13.1416 10.6873 13.2271 10.6882 13.3844 10.6882L12.5044 9.78711C12.2344 9.54711 12.2244 9.13711 12.4644 8.86711C12.7044 8.60711 13.1144 8.58711 13.3844 8.82711L15.4238 10.8182C15.7338 11.0982 15.7338 11.5782 15.4238 11.8582L13.3844 13.8869C13.2544 14.0069 13.1044 14.0569 12.9444 14.0569Z"/></svg>

<svg xmlns="http://www.w3.org/2000/svg" fill="none" viewBox="0 0 24 24" focusable="false"><path fill="#74767B" fill-rule="evenodd" d="M17 3c1.65 0 3 1.34 3 3v12c0 1.65-1.35 3-3 3H7c-1.65 0-3-1.35-3-3V6c0-1.66 1.35-3 3-3zm-4.06 11.05c-.18 0-.35-.07-.48-.21a.66.66 0 0 1 .04-.92l.88-.93h-.76c-1.3 0-2.35 1.05-2.35 2.35v.35c0 .36-.29.65-.65.65s-.65-.29-.65-.65v-.35c0-2.02 1.64-3.65 3.65-3.65.28-.01.34-.01.45-.01h.31l-.88-.9a.65.65 0 0 1-.04-.92c.24-.26.65-.28.92-.04l2.04 1.99c.31.28.31.76 0 1.04l-2.04 2.03c-.13.12-.28.17-.44.17"/></svg>
